build/img/icons/bx-calendar.svg

<svg xmlns="http://www.w3.org/2000/svg" width="24" height="24"><path d="M7 11h2v2H7zm0 4h2v2H7zm4-4h2v2h-2zm0 4h2v2h-2zm4-4h2v2h-2zm0 4h2v2h-2z"/><path d="M5 22h14c1.103 0 2-.897 2-2V6c0-1.103-.897-2-2-2h-2V2h-2v2H9V2H7v2H5c-1.103 0-2 .897-2 2v14c0 1.103.897 2 2 2zM19 8l.001 12H5V8h14z" fill="#16c79a"/></svg>

<svg xmlns="http://www.w3.org/2000/svg" width="24" height="24" viewBox="0 0 24 24"><path d="M7 11H9V13H7zM7 15H9V17H7zM11 11H13V13H11zM11 15H13V17H11zM15 11H17V13H15zM15 15H17V17H15z"/><path d="M5,22h14c1.103,0,2-0.897,2-2V8V6c0-1.103-0.897-2-2-2h-2V2h-2v2H9V2H7v2H5C3.897,4,3,4.897,3,6v2v12 C3,21.103,3.897,22,5,22z M19,8l0.001,12H5V8H19z" fill="#16c79a"/></svg>
